src/assets/duotone/Signpost.svg

<svg width="24" height="24" viewBox="0 0 24 24"  xmlns="http://www.w3.org/2000/svg">
<path d="M18.9698 3.75V7.25C18.9698 8.22 18.1898 9 17.2198 9H8.95987C8.56987 9 8.17985 8.85999 7.86985 8.62L5.67984 6.87C4.80984 6.17 4.80984 4.83 5.67984 4.13L7.86985 2.38C8.17985 2.14 8.56987 2 8.95987 2H17.2198C18.1898 2 18.9698 2.78 18.9698 3.75Z" />
<path d="M18.3398 16.87L16.1598 18.62C15.8498 18.86 15.4598 19 15.0598 19H6.7998C5.8298 19 5.0498 18.22 5.0498 17.25V13.75C5.0498 12.78 5.8298 12 6.7998 12H15.0598C15.4598 12 15.8498 12.14 16.1598 12.38L18.3398 14.13C19.2198 14.83 19.2198 16.17 18.3398 16.87Z" />
<path opacity="0.4" d="M12.75 9H11.25V12H12.75V9Z" />
<path opacity="0.4" d="M15.75 22C15.75 22.41 15.41 22.75 15 22.75H9C8.59 22.75 8.25 22.41 8.25 22C8.25 21.59 8.59 21.25 9 21.25H11.25V19H12.75V21.25H15C15.41 21.25 15.75 21.59 15.75 22Z" />
</svg>

<?xml version="1.0" encoding="UTF-8"?>
<svg width="24" height="24" viewBox="0 0 24 24" xmlns="http://www.w3.org/2000/svg">
 <path d="m18.97 3.75v3.5c0 0.97-0.78 1.75-1.75 1.75h-8.2599c-0.39 0-0.78002-0.14001-1.09-0.38l-2.19-1.75c-0.87-0.7-0.87-2.04 0-2.74l2.19-1.75c0.31-0.24 0.70002-0.38 1.09-0.38h8.2599c0.97 0 1.75 0.78 1.75 1.75z"/>
 <path d="m18.34 16.87-2.18 1.75c-0.31 0.24-0.7 0.38-1.1 0.38h-8.26c-0.97 0-1.75-0.78-1.75-1.75v-3.5c0-0.97 0.78-1.75 1.75-1.75h8.26c0.4 0 0.79 0.14 1.1 0.38l2.18 1.75c0.88 0.7 0.88 2.04 0 2.74z"/>
 <path d="m12.75 9h-1.5v3h1.5v-3z" opacity=".4"/>
 <path d="m15.75 22c0 0.41-0.34 0.75-0.75 0.75h-6c-0.41 0-0.75-0.34-0.75-0.75s0.34-0.75 0.75-0.75h2.25v-2.25h1.5v2.25h2.25c0.41 0 0.75 0.34 0.75 0.75z" opacity=".4"/>
</svg>
